X: 2
T: the Cat's Meow
C: Joanie Madden
R: jig
S: http://www.folktunefinder.com/tunes/97450
S: THSP (What/s this?)
M: 6/8
L: 1/8
K: D
|:\
"D"DFA def | afd edA | "G"~B3 BAF | "A"DFD EDB, |\
"D"DFA def | afd edB | "G"efe edB |1 "A"AFE "D"D2E :|2 "A"AFE "D"D2e ||
|:\
"D"fdB BAF | DFA def | "G"gBg ged | "A"ced BcA |\
"D"fdB BAF | DFA def | "G"gfe age |1 "A"edc "D"d2e :|2 "A"edc "D"d2B ||
|:\
"D"Adf a2a | agf a2a | "A"Ace g2g | gfe gfe |\
"D"(3fga f "G"gbg | "E"(3^gab ^g "A"aba | "D"afd "A"gec |1 "D"dAF D2B :|2 "D"dAF D2E |]
